X:1
T:12:16
C:Croga
M:4/4
Q:140
K:Dmaj
|: D2 DF EF .A d-| d2 de cB A B-|B2 Bd cB A B-| B2 Bd fe d D-|
D2 DF EF .A d-| d2 de cB A B-|B2 Bd cB AB | FA FE DC D2 |
B2 BA FE-E2 | ED EF DD-D2 | B2 BA FE-E2 | ED FE DD-D2 |
B2 BA FE-E2 | ED EF AB-B2|BA Bc de-e2 | ed ef ed D2
